public/icons/04.svg

<svg width="46" height="26" viewBox="0 0 46 26" fill="none" xmlns="http://www.w3.org/2000/svg">
<path d="M3.96108 25.9287L0.0760746 22.0437V4.01871L3.96108 0.133709H16.9111L20.7961 4.01871V22.0437L16.9111 25.9287H3.96108ZM7.84608 20.9587H13.0261L14.2511 19.7337V6.32871L13.0261 5.10371H7.84608L6.62108 6.32871V19.7337L7.84608 20.9587ZM35.9645 25.9287V21.7287H22.7345V16.7937L35.8245 0.133709H42.5095V16.7937H45.4495V21.7287H42.5095V25.9287H35.9645ZM29.9095 16.7937H35.9645V8.63871L29.9095 16.7937Z" fill="url(#paint0_linear_1343_362)"/>
<defs>
<linearGradient id="paint0_linear_1343_362" x1="-2" y1="-6.56929" x2="29.3793" y2="28.5409" gradientUnits="userSpaceOnUse">
<stop stop-color="#E42BC8"/>
<stop offset="1" stop-color="#5670FD"/>
</linearGradient>
</defs>
</svg>

<svg width="46" height="26" fill="none" xmlns="http://www.w3.org/2000/svg"><path d="M3.961 25.929.076 22.044V4.019L3.961.134h12.95l3.885 3.885v18.025l-3.885 3.885H3.961zm3.885-4.97h5.18l1.225-1.225V6.329l-1.225-1.225h-5.18L6.621 6.329v13.405l1.225 1.225zm28.119 4.97v-4.2h-13.23v-4.935L35.825.134h6.684v16.66h2.94v4.935h-2.94v4.2h-6.544zm-6.056-9.135h6.056V8.639l-6.056 8.155z" fill="url(#a)"/><defs><linearGradient id="a" x1="-2" y1="-6.569" x2="29.379" y2="28.541" gradientUnits="userSpaceOnUse"><stop stop-color="#E42BC8"/><stop offset="1" stop-color="#5670FD"/></linearGradient></defs></svg>
